!!!OTL@@DE: Bl&ouml;digkeit
!!!ONB: Componist unbekannt
!!!ODT: 1839
!!!OMD: Allegretto
!!!ONB: Dichter unbekannt
!!!LDT: 1839
!!!OCL: Erk, Ludwig
!!!GCO: Deutscher Liederschatz, Band 1
**kern	**kern	**kern
*staff3	*staff2	*staff1
*Ipiano	*Ipiano	*Ivox
*clefF4	*clefG2	*clefG2
*k[f#]	*k[f#]	*k[f#]
*G:	*G:	*G:
*M2/4	*M2/4	*M2/4
*MM112	*MM112	*MM112
4r	4r	8d/
.	.	8d/
=1	=1	=1
8GG/	8r	8d/
8r	8B/ 8d/	8b\
8G\	8r	8cc\
8r	8B/ 8d/ 8b/	8b\
=2	=2	=2
8C/	8r	8b\
8r	8c/ 8e/ 8a/	8a/
8AA/	8r	8a/
8r	8c/ 8e/ 8g/	8g/
=3	=3	=3
8D\	8r	8g/
8r	8A/ 8c/ 8f#/	8f#/
8D\	8r	8e/
8r	8F#/ 8c/ 8d/	8d/
=4	=4	=4
8GG/	8r	(8d/L
8r	8G/ 8B/ 8d/	8g/J)
8G\	8r	8g/
8r	8B/ 8d/ 8b/	8b\
=5	=5	=5
8D#\	8r	8b\
8r	8B/ 8f#/ 8a/	8a/
8E\	8r	8a/
8r	8B/ 8e/ 8g/	8g/
=6	=6	=6
8C#/	8r	8f#/
8r	8A/ 8e/	8e/
8Dn\	8r	8g/
8r	8A/ 8d/ 8f#/	8f#/
=7	=7	=7
8FF#/ 8F#/L	8A/ 8d/ 8a/L	8a/
8GG/ 8G/	8B/ 8e/ 8g/	8g/
8AA/	8A/ 8d/ 8f#/	8f#/
8AA/J	8G/ 8c#/ 8e/J	8e/
=8	=8	=8
8DD/ 8D/	8F#/ 8d/	8d/
8r	8r	8r
4r	4r	8a/
.	.	8a/
=9	=9	=9
8Cn/	8r	8g/
8r	8F#/ 8A/ 8d/	8f#/
8C/	8r	8e/
8r	8F#/ 8A/ 8d/	8d/
=10	=10	=10
8BB/	8r	8d/
8r	8G/ 8d/ 8g/	8g/
8GG/	8r	8a/
8r	8d/ 8g/ 8b/	8b\
=11	=11	=11
8FF#/ 8F#/L	8d/ 8a/ 8cc/L	8cc\
8GG/ 8G/	8d/ 8g/ 8b/	8b\
8C/	8e/ 8a/	8a/
8C#/J	8A/ 8e/ 8g/J	8g/
=12	=12	=12
8D\	8r	4f#/
8r	8A/ 8d/ 8f#/	.
8Cn/	8r	8d/
8r	8d/ 8f#/ 8a/	8d/
=13	=13	=13
8BB/	8r	8dd\
8r	8d/ 8g/ 8dd/	8dd\
8GG#/	8r	8cc\
8r	8d/ 8fn/ 8b/	8b\
=14	=14	=14
8AA/	8r	8dd\
8r	8c/ 8e/ 8cc/	8cc\
8C/	8r	8a/
8r	8c/ 8e/	8g/
=15	=15	=15
8D\	8r	16f#/LL
.	.	16g/JJ
8r	8A/ 8c/ 8f#/	16a/LL
.	.	16b/JJ
8DD/ 8D/	8r	8cc\
8r	8A/ 8c/ 8d/ 8f#/	8f#/
=16	=16	=16
4GG/	4B/ 4d/ 4g/	4g/
==	==	==
*-	*-	*-
!!!ENC: Craig Stuart Sapp
!!!END: 2004/05/27/
!!!EFL: 110/651
